X:242
T: ES ISCH ES MEITSCHI IN DIESEM ZWING
N: E0827
O: Europa, Mitteleuropa, Deutschland, Schweiz
R: Kilt - Lied
M: 2/4
L: 1/16
K: Bb
Bc | d2B2B2cd | e2c2c2
Bd | d2B2B2cd | e2c2c2f2 | c4z2
d2 | e2c2d2B2 | c4c2
d2 | e2c2d2B2 | c4c2
B2 | c4B2A2 | B6

@@@ Tune index: 4555
